frontend/public/svg/interface/music-2.svg

<svg width="141" height="156" viewBox="0 0 141 156" fill="none" xmlns="http://www.w3.org/2000/svg">
<g clip-path="url(#clip0)">
<path d="M11.4069 151.273C15.2115 154.173 19.8354 155.76 24.5985 155.802C28.1876 155.759 31.7237 154.921 34.9585 153.348C42.3888 149.865 46.1747 143.589 46.2121 134.692C46.215 134.048 46.2198 133.404 46.2262 132.759C46.2346 131.839 46.2429 130.919 46.2429 129.999V115.932C46.2429 103.874 46.2468 91.8169 46.2546 79.7599C46.2563 79.5066 46.271 79.2534 46.2985 79.0021C47.2469 78.6209 48.1752 78.2704 49.0726 77.931C51.1296 77.2064 53.1381 76.3475 55.0856 75.3606C65.3436 69.864 75.7501 64.2374 85.8152 58.7964C95.6475 53.4813 105.815 47.9847 115.831 42.6141C118.835 41.0039 121.88 39.5965 125.105 38.107C126.278 37.5646 127.459 37.0195 128.646 36.4602V91.4847C128.337 91.2308 128.032 90.9801 127.733 90.7321C126.437 89.6075 125.068 88.5729 123.635 87.6356C117.893 84.0633 111.898 83.9569 106.302 87.3256C98.9378 91.7595 94.5707 98.7253 93.6727 107.47C92.5662 118.262 98.4759 126.903 108.382 128.972C117.95 130.97 127.092 128.151 133.452 121.231C139.377 114.789 141.741 106.082 139.622 98.5073C139.42 97.5863 139.344 96.6425 139.394 95.7006C139.394 95.4754 139.394 95.2515 139.394 95.0283C139.326 86.1892 139.259 77.3494 139.194 68.5096C139.054 49.6497 138.904 30.7897 138.742 11.9296C138.78 9.52764 138.508 7.13105 137.934 4.80008C137.511 3.28707 136.164 1.39277 134.723 0.969807C131.811 0.114745 128.344 -0.490788 124.716 1.49217C116.048 6.227 106.739 11.038 97.0494 15.7918C75.3494 26.437 58.2752 35.9001 43.3256 45.5702C42.152 46.3293 40.8353 48.1016 40.7534 49.6427C39.9405 65.1291 39.2048 81.4478 38.5681 98.147C38.4268 101.843 38.4617 105.553 38.4985 109.481C38.5133 111.048 38.5288 112.66 38.5333 114.323L37.5095 113.916C36.483 113.509 35.7411 113.215 35.014 112.884C34.2437 112.534 33.4655 112.133 32.7145 111.746C31.219 110.915 29.6501 110.227 28.0281 109.69C19.4036 107.145 12.4985 108.683 7.5024 114.259C5.2544 116.904 3.56539 119.984 2.53971 123.314C1.51402 126.643 1.17334 130.15 1.53858 133.618C1.90381 137.085 2.96731 140.441 4.66341 143.476C6.35952 146.512 8.65233 149.164 11.4005 151.269L11.4069 151.273ZM38.5379 131.273C38.545 131.729 38.5514 132.162 38.5269 132.592C38.0204 141.268 34.1939 145.712 26.121 147.01C19.6436 148.043 12.841 143.664 10.2991 136.809C8.08427 130.84 8.88433 124.938 12.6759 119.266C14.5437 116.472 17.2894 115.118 21.1829 115.118C24.5493 115.137 27.8652 115.949 30.8688 117.486C37.1108 120.554 39.5488 124.691 38.5404 130.509C38.5339 130.547 38.5308 130.586 38.5308 130.625C38.5308 130.84 38.534 131.057 38.5379 131.273ZM46.5378 71.9508V50.2425L129.164 8.60424V25.7107L46.5378 71.9508ZM129.284 111.92C127.897 115.439 124.682 117.323 122.228 118.283C120.219 119.067 118.086 119.675 116.022 120.261C115.126 120.516 114.228 120.77 113.337 121.04C105.928 120.449 101.256 115.307 101.698 108.211C101.842 105.397 102.595 102.651 103.905 100.166C105.215 97.6803 107.048 95.5165 109.277 93.8279C110.97 92.4076 113.091 91.6146 115.291 91.5793C116.742 91.5904 118.171 91.9383 119.469 92.5969C126.231 95.9304 129.307 100.005 129.438 105.81C129.452 106.38 129.495 106.965 129.538 107.554C129.651 109.096 129.768 110.691 129.284 111.92H129.284Z" fill="black"/>
</g>
<defs>
<clipPath id="clip0">
<rect width="140" height="156" fill="white" transform="translate(0.777344)"/>
</clipPath>
</defs>
</svg>

<svg xmlns="http://www.w3.org/2000/svg" width="141" height="156" fill="none" viewBox="0 0 141 156"><g clip-path="url(#a)"><path fill="#000" d="M11.407 151.273a22.08 22.08 0 0 0 13.192 4.529 24.35 24.35 0 0 0 10.36-2.454c7.43-3.483 11.216-9.759 11.253-18.656q.005-.966.014-1.933.015-1.38.017-2.76v-14.067q0-18.087.012-36.172.002-.38.043-.758c.949-.381 1.877-.732 2.775-1.071a50 50 0 0 0 6.013-2.57c10.258-5.497 20.664-11.124 30.73-16.565 9.831-5.315 19.999-10.811 30.015-16.182 3.004-1.61 6.049-3.017 9.274-4.507 1.173-.542 2.354-1.087 3.541-1.647v55.025q-.464-.381-.913-.753a38 38 0 0 0-4.098-3.096c-5.742-3.573-11.737-3.68-17.333-.31-7.364 4.434-11.731 11.4-12.63 20.144-1.106 10.792 4.804 19.433 14.71 21.502 9.568 1.998 18.71-.821 25.07-7.741 5.925-6.442 8.289-15.149 6.17-22.724a10.5 10.5 0 0 1-.228-2.806v-.673q-.102-13.259-.2-26.518-.21-28.29-.452-56.58a28 28 0 0 0-.808-7.13c-.423-1.513-1.77-3.407-3.211-3.83-2.912-.855-6.379-1.46-10.007.522-8.668 4.735-17.977 9.546-27.667 14.3C75.35 26.437 58.275 35.9 43.326 45.57c-1.174.76-2.49 2.532-2.573 4.073a3407 3407 0 0 0-2.185 48.504c-.141 3.696-.106 7.406-.07 11.334.015 1.567.03 3.179.035 4.842l-1.023-.407c-1.027-.407-1.769-.701-2.496-1.032a53 53 0 0 1-2.3-1.138 27.3 27.3 0 0 0-4.686-2.056c-8.624-2.545-15.53-1.007-20.526 4.569a25.6 25.6 0 0 0-4.962 9.055 25.8 25.8 0 0 0-1.001 10.304 25.7 25.7 0 0 0 3.124 9.858 25.4 25.4 0 0 0 6.737 7.793zm27.13-20c.008.456.014.889-.01 1.319-.507 8.676-4.333 13.12-12.406 14.418-6.477 1.033-13.28-3.346-15.822-10.201-2.215-5.969-1.415-11.871 2.377-17.543 1.868-2.794 4.613-4.148 8.507-4.148a21.5 21.5 0 0 1 9.686 2.368c6.242 3.068 8.68 7.205 7.671 13.023a1 1 0 0 0-.01.116q.001.323.008.648m8-59.322V50.243l82.627-41.639v17.107zm82.747 39.969c-1.387 3.519-4.602 5.403-7.056 6.363-2.009.784-4.142 1.392-6.206 1.978-.896.255-1.794.509-2.685.779-7.409-.591-12.081-5.733-11.639-12.829.144-2.814.897-5.56 2.207-8.045a19.1 19.1 0 0 1 5.372-6.338 9.6 9.6 0 0 1 6.014-2.249 9.4 9.4 0 0 1 4.178 1.018c6.762 3.333 9.838 7.408 9.969 13.213.014.57.057 1.155.1 1.744.113 1.542.23 3.137-.254 4.366"/></g><defs><clipPath id="a"><path fill="#fff" d="M.777 0h140v156h-140z"/></clipPath></defs></svg>
